resources/haticons/SVG/filter_center_focus.svg

<!-- Generated by IcoMoon.io -->
<svg version="1.1" xmlns="http://www.w3.org/2000/svg" width="24" height="24" viewBox="0 0 24 24">
<title>filter_center_focus</title>
<path d="M12 9q1.219 0 2.109 0.891t0.891 2.109-0.891 2.109-2.109 0.891-2.109-0.891-0.891-2.109 0.891-2.109 2.109-0.891zM18.984 18.984v-3.984h2.016v3.984q0 0.797-0.609 1.406t-1.406 0.609h-3.984v-2.016h3.984zM18.984 3q0.797 0 1.406 0.609t0.609 1.406v3.984h-2.016v-3.984h-3.984v-2.016h3.984zM5.016 5.016v3.984h-2.016v-3.984q0-0.797 0.609-1.406t1.406-0.609h3.984v2.016h-3.984zM5.016 15v3.984h3.984v2.016h-3.984q-0.797 0-1.406-0.609t-0.609-1.406v-3.984h2.016z"></path>
</svg>

<svg xmlns="http://www.w3.org/2000/svg" width="24" height="24"><path d="M12 9q1.219 0 2.109.891T15 12t-.891 2.109T12 15t-2.109-.891T9 12t.891-2.109T12 9zm6.984 9.984V15H21v3.984q0 .797-.609 1.406t-1.406.609h-3.984v-2.016h3.984zm0-15.984q.797 0 1.406.609t.609 1.406v3.984h-2.016V5.015h-3.984V2.999h3.984zM5.016 5.016V9H3V5.016q0-.797.609-1.406t1.406-.609h3.984v2.016H5.015zm0 9.984v3.984H9V21H5.016q-.797 0-1.406-.609t-.609-1.406v-3.984h2.016z"/></svg>
